!!!COM: des Prez, Josquin
!!!CDT: ~1450-1521/08/27
!!!OPR: Missa L'ami Baudichon
!!!ONM: 4
!!!OTL: Sanctus
!!!AGN: Mass; Sanctus
!!!SCT: NJE 5.1
!!!SCA: New Josquin Edition 5.1
!!!voices: 4
!!!voices-OPR: 4
**kern	**text	**kern	**text	**kern	**text	**kern	**text
*staff4	*	*staff3	*	*staff2	*	*staff1	*
*Ivox	*	*Ivox	*	*Ivox	*	*Ivox	*
*I"Bassus	*	*I"Tenor	*	*I"Altus	*	*I"Superius	*
*I'B	*	*I'T	*	*I'A	*	*I'S	*
*>[A,B,C,D,E,F,C]	*	*>[A,B,C,D,E,F,C]	*	*>[A,B,C,D,E,F,C]	*	*>[A,B,C,D,E,F,C]	*
*>A	*	*>A	*	*>A	*	*>A	*
*clefF4	*	*clefGv2	*	*clefGv2	*	*clefG2	*
*k[]	*	*k[]	*	*k[]	*	*k[]	*
*M3/1	*	*M3/1	*	*M3/1	*	*M3/1	*
*met(O)	*	*met(O)	*	*met(O)	*	*met(O)	*
=1-	=1-	=1-	=1-	=1-	=1-	=1-	=1-
!	!	!LO:TX:Z=10:X=-40:t=Tenor&colon; In duplo provulgatur (Disclosed in double) [2&colon;1 augmentation]	!	!	!	!LO:TX:Z=6:t=T text based loosely on Verona 761, where the French words appear sporadically throughout the mass	!
!	!	!LO:N:vis=0.	!	!	!	!	!
0.r	.	0.r	.	0c	Sanc-	0cc	Sanc-
.	.	.	.	2e\	.	1cc	.
.	.	.	.	2f\	.	.	.
=2	=2	=2-	=2	=2	=2	=2	=2
0.r	.	0.ryy	.	1g	.	1b	.
.	.	.	.	1.f	.	1.a	.
.	.	.	.	2e\	.	2g/	.
=3	=3	=3	=3	=3	=3	=3	=3
!	!	!LO:N:vis=0.	!	!	!	!	!
0.r	.	0.r	.	1e	.	1g	.
.	.	.	.	2d\	.	1.f	.
.	.	.	.	2.d\	.	.	.
.	.	.	.	4c\	.	.	.
.	.	.	.	2A/	.	2e/	.
=4	=4	=4-	=4	=4	=4	=4	=4
0.r	.	0.ryy	.	2G/	.	1e	.
.	.	.	.	2c\	.	.	.
.	.	.	.	2d\	.	1.d	.
.	.	.	.	1B	.	.	.
.	.	.	.	2A/	.	2c/	.
=5	=5	=5	=5	=5	=5	=5	=5
!	!	!LO:N:vis=0.	!	!	!	!	!
0.r	.	0.r	.	0.c	-tus,	1c	-tus,
.	.	.	.	.	.	1r	.
.	.	.	.	.	.	2r	.
.	.	.	.	.	.	[2g/	sanc-
=6	=6	=6-	=6	=6	=6	=6	=6
0.r	.	0.ryy	.	1r	.	2g/]	.
.	.	.	.	.	.	2f/	.
.	.	.	.	2r	.	2e/	.
.	.	.	.	1g	sanc-	4d/	.
.	.	.	.	.	.	4c/	.
.	.	.	.	.	.	1B	.
.	.	.	.	2f\	.	.	.
=7	=7	=7	=7	=7	=7	=7	=7
!	!	!LO:N:vis=0.	!	!	!	!	!
0.r	.	0.r	.	2e\	.	1c	-tus,
.	.	.	.	4d\	.	.	.
.	.	.	.	4c\	.	.	.
.	.	.	.	1B	.	1d	.
.	.	.	.	1c	-tus,	2r	.
.	.	.	.	.	.	[2g/	sanc-
=8	=8	=8-	=8	=8	=8	=8	=8
0.r	.	0.ryy	.	1d	.	2g/]	.
.	.	.	.	.	.	2f/	.
.	.	.	.	2r	.	2e/	.
.	.	.	.	1g	sanc-	4d/	.
.	.	.	.	.	.	4c/	.
.	.	.	.	.	.	1B	.
.	.	.	.	2f\	.	.	.
=9	=9	=9	=9	=9	=9	=9	=9
!	!	!LO:N:vis=0.	!	!	!	!	!
0.r	.	0.r	.	2e\	.	2c/	.
.	.	.	.	4d\	.	2e/	.
.	.	.	.	4c\	.	.	.
.	.	.	.	1B	.	1d	-tus,
.	.	.	.	2c\	.	2c/	sanc-
.	.	.	.	2e\	.	2g/	.
=10	=10	=10-	=10	=10	=10	=10	=10
0.r	.	0.ryy	.	1d	-tus,	2f/	.
.	.	.	.	.	.	2d/	.
.	.	.	.	2c\	sanc-	1e	-tus,
.	.	.	.	2g\	.	.	.
.	.	.	.	2f\	.	1d	.
.	.	.	.	2d\	.	.	.
=11	=11	=11	=11	=11	=11	=11	=11
!	!	!LO:N:vis=0.	!	!	!	!	!
0.r	.	0.r	.	1e	.	2c/	sanc-
.	.	.	.	.	.	2g/	.
.	.	.	.	2.d\	.	2f/	.
.	.	.	.	.	.	2.a/	.
.	.	.	.	4c\	.	.	.
.	.	.	.	2.A/	.	.	.
.	.	.	.	.	.	4g/	.
.	.	.	.	.	.	[2e/	.
.	.	.	.	4G/	.	.	.
=12	=12	=12-	=12	=12	=12	=12	=12
0.r	.	0.ryy	.	2A/	.	4e/]	.
.	.	.	.	.	.	4f/	.
.	.	.	.	2B\	.	2.g/	.
.	.	.	.	2.c\	.	.	.
.	.	.	.	.	.	4c/	.
.	.	.	.	.	.	1g	.
.	.	.	.	4B\	.	.	.
.	.	.	.	2G/	.	.	.
.	.	.	.	2c\	.	2e/	.
=13	=13	=13	=13	=13	=13	=13	=13
!	!	!LO:N:vis=0.	!	!	!	!	!
0.r	.	0.r	.	2d\	.	1d	-tus,
.	.	.	.	2B\	.	.	.
.	.	.	.	2.c\	.	2r	.
.	.	.	.	.	.	1c	sanc-
.	.	.	.	4B\	.	.	.
.	.	.	.	2A/	.	.	.
.	.	.	.	2G/	.	2e/	.
=14	=14	=14-	=14	=14	=14	=14	=14
0.r	.	0.ryy	.	2B\	.	2d/	.
.	.	.	.	2A/	.	2f/	.
.	.	.	.	2c\	.	2e/	.
.	.	.	.	2B\	.	2g/	.
.	.	.	.	2d\	.	2f/	.
.	.	.	.	2c\	.	2a/	.
=15	=15	=15	=15	=15	=15	=15	=15
!	!	!LO:N:vis:0.	!	!	!	!	!
0.r	.	0.r	.	2e\	.	2g/	.
.	.	.	.	2d\	.	2b\	.
.	.	.	.	2f\	.	2a/	.
.	.	.	.	2e\	.	2cc\	.
.	.	.	.	2.g\	.	2b\	.
.	.	.	.	.	.	2dd\	.
.	.	.	.	4f\	.	.	.
=16	=16	=16-	=16	=16	=16	=16	=16
0.r	.	0.ryy	.	4e\	.	2cc\	.
.	.	.	.	4d\	.	.	.
.	.	.	.	1c	.	2.ee\	.
.	.	.	.	.	.	4dd\	.
.	.	.	.	2e\	.	1cc	.
.	.	.	.	1d	.	.	.
.	.	.	.	.	.	2b\	.
=17	=17	=17	=17	=17	=17	=17	=17
!	!	!LO:N:vis=0	!	!	!	!	!
0.C	Sanc-	[y0.e	L'a-	0c	-tus	0.cc	-tus
.	.	.	.	1c	do-	.	.
=18	=18	=18-	=18	=18	=18	=18	=18
0c	-tus	1e]yy	.	0A	.	1r	.
!	!	!LO:N:vis=1	!	!	!	!	!
.	.	0e	-mi	.	.	1r	.
.	.	.	.	.	.	.	.
1A	do-	.	.	1c	-mi-	1cc	do-
=19	=19	=19	=19	=19	=19	=19	=19
!	!	!LO:N:vis=0	!	!	!	!	!
2.B-\	.	[y0.d	Bau-	1G	-nus,	2.dd\	.
4A\	.	.	.	.	.	4cc\	.
2F\	.	.	.	1r	.	2a/	.
1G	.	.	.	.	.	1b-	.
.	.	.	.	1G	do-	.	.
4F\	.	.	.	.	.	4a/	.
4E\	.	.	.	.	.	4g/	.
=20	=20	=20-	=20	=20	=20	=20	=20
0D	.	1d]yy	.	0A	.	0.f	.
!	!	!LO:N:vis=1	!	!	!	!	!
.	.	0d	-di-	.	.	.	.
1BB-	-mi-	.	.	1B-	-mi-	.	.
=21	=21	=21	=21	=21	=21	=21	=21
!	!	!LO:N:vis=0	!	!	!	!	!
[0.C	-nus,	[y0.c	-chon,	1G	-nus	0e	-mi-
.	.	.	.	2r	.	.	.
.	.	.	.	2g\	de-	.	.
.	.	.	.	2a\	.	1e	-nus
.	.	.	.	2g\	.	.	.
=22	=22	=22-	=22	=22	=22	=22	=22
0C]	.	1c]yy	.	0e	-us	2r	.
.	.	.	.	.	.	1g	de-
!	!	!LO:N:vis=1	!	!	!	!	!
.	.	0c	ma-	.	.	.	.
.	.	.	.	.	.	2e/	.
2F\	de-	.	.	1r	.	2f/	.
2E\	.	.	.	.	.	2g/	.
=23	=23	=23	=23	=23	=23	=23	=23
!	!	!LO:N:vis=0	!	!	!	!	!
0C	-us,	[y0.c	-da-	1g	sa-	1e	-us,
.	.	.	.	2a\	.	1r	.
.	.	.	.	1g	.	.	.
1C	de-	.	.	.	.	1g	de-
.	.	.	.	2e\	.	.	.
=24	=24	=24-	=24	=24	=24	=24	=24
0F	.	1c]yy	.	2f\	-ba-	1.a	.
.	.	.	.	4e\	.	.	.
.	.	.	.	4d\	.	.	.
!	!	!LO:N:vis=1	!	!	!	!	!
.	.	0c	-me,	0c	-oth,	.	.
.	.	.	.	.	.	1cc	.
2.A\	.	.	.	.	.	.	.
.	.	.	.	.	.	4b\	.
4B\	.	.	.	.	.	4a/	.
=25	=25	=25	=25	=25	=25	=25	=25
!	!	!LO:N:vis=0	!	!	!	!	!
0c	.	[y0.e	L'a-	1r	.	1g	-us
.	.	.	.	1r	.	2a/	sa-
.	.	.	.	.	.	2g/	.
1c	-us	.	.	1g	de-	2.cc\	.
.	.	.	.	.	.	4dd\	.
=26	=26	=26-	=26	=26	=26	=26	=26
2.C/	sa-	1e]yy	.	0g	-us	1.ee	.
4D\	.	.	.	.	.	.	.
!	!	!LO:N:vis=1	!	!	!	!	!
2.E\	.	0e	-mi	.	.	.	.
.	.	.	.	.	.	4dd\	.
4F\	.	.	.	.	.	4cc\	.
2G\	.	.	.	1r	.	2b\	.
2A\	.	.	.	.	.	2cc\	.
=27	=27	=27	=27	=27	=27	=27	=27
!	!	!LO:N:vis=0	!	!	!	!	!
2B-\	.	[y0.d	Bau-	0G	sa-	1.dd	.
1B-i	-ba-	.	.	.	.	.	.
4A\	.	.	.	.	.	4cc\	.
4G\	.	.	.	.	.	4b\	.
2F\	.	.	.	2A/	.	2a/	.
[2G\	-oth,	.	.	2G/	.	[2b\	.
=28	=28	=28-	=28	=28	=28	=28	=28
2G\]	.	1d]yy	.	2.d\	-ba-	4b\]	.
.	.	.	.	.	.	4cc\	.
2.D\	sa-	.	.	.	.	2.dd\	.
.	.	.	.	4c\	.	.	.
!	!	!LO:N:vis=1	!	!	!	!	!
.	.	0d	-di-	1A	.	.	.
4E\	.	.	.	.	.	4cc\	.
2F\	.	.	.	.	.	2a/	.
1G	-ba-	.	.	1G	-oth,	1b	-ba-
=29	=29	=29	=29	=29	=29	=29	=29
0C	-oth,	[0.cl	-chon.	1g	sa-	1cc	-oth,
.	.	.	.	2a\	.	1r	.
.	.	.	.	1g	.	.	.
1C	sa-	.	.	.	.	1g	sa-
.	.	.	.	2e\	.	.	.
=30	=30	=30-	=30	=30	=30	=30	=30
2F\	.	0.c_	.	2f\	.	2a/	.
2E\	.	.	.	2g\	-ba-	1g	.
1C	.	.	.	1e	-oth,	.	.
.	.	.	.	.	.	2e/	.
2F\	.	.	.	1r	.	2f/	.
2E\	-ba-	.	.	.	.	2g/	-ba-
=31	=31	=31	=31	=31	=31	=31	=31
[0.C	-oth,	0.c_	.	2r	.	1e	-oth,
.	.	.	.	2g\	sa-	.	.
.	.	.	.	2a\	.	2r	.
.	.	.	.	2g\	.	2g/	sa-
.	.	.	.	2.e\	.	2a/	.
.	.	.	.	.	.	2g/	.
.	.	.	.	4f\	.	.	.
=32	=32	=32-	=32	=32	=32	=32	=32
0C]	.	0.c_	.	2g\	-ba-	2.e/	.
.	.	.	.	2c\	-oth,	.	.
.	.	.	.	.	.	4f/	.
.	.	.	.	2r	.	2g/	-ba-
.	.	.	.	2g\	sa-	2c/	-oth,
1r	.	.	.	2a\	.	2r	.
.	.	.	.	2g\	.	2g/	sa-
=33	=33	=33	=33	=33	=33	=33	=33
[0.C	sa-	0.c_	.	2.e\	.	2a/	.
.	.	.	.	.	.	2g/	.
.	.	.	.	4f\	.	.	.
.	.	.	.	2g\	.	2.e/	.
.	.	.	.	2a\	.	.	.
.	.	.	.	.	.	4f/	.
.	.	.	.	1e	.	2g/	.
.	.	.	.	.	.	2a/	.
=34	=34	=34-	=34	=34	=34	=34	=34
1C]	.	0.c_	.	1r	.	2e/	.
.	.	.	.	.	.	2.cc\	.
0F	-ba-	.	.	0A 0f	-ba-	.	.
.	.	.	.	.	.	4b\	.
.	.	.	.	.	.	1a	.
.	.	.	.	.	.	4g/	-ba-
.	.	.	.	.	.	4f/	.
=35	=35	=35	=35	=35	=35	=35	=35
*	*	*	*	*^	*	*	*
0.Cl	-oth.	0.c]	.	0.Gl\	0.gl/	-oth.	0.el	-oth.
*	*	*	*	*v	*v	*	*	*
!!LO:LB:i:g=z
=36||	=36||	=36||	=36||	=36||	=36||	=36||	=36||
*>B	*	*>B	*	*>B	*	*>B	*
*clefF4	*	*clefGv2	*	*clefGv2	*	*clefG2	*
*k[]	*	*k[]	*	*k[]	*	*k[]	*
*M3/1	*	*M3/1	*	*M3/1	*	*M3/1	*
*met(O)	*	*met(O)	*	*met(O)	*	*met(O)	*
!!section: Pleni
!!!OMD: Pleni
0.r	.	0.r	.	0.c	Ple-	0cc	Ple-
.	.	.	.	.	.	1cc	-ni
=37	=37	=37	=37	=37	=37	=37	=37
0.r	.	0.r	.	0e	.	1cc	sunt
.	.	.	.	.	.	2b\	.
.	.	.	.	.	.	2g/	.
.	.	.	.	1f	.	2a/	.
.	.	.	.	.	.	4g/	.
.	.	.	.	.	.	4f/	.
=38	=38	=38	=38	=38	=38	=38	=38
0.r	.	0.r	.	0g	.	0e	ce-
.	.	.	.	1c	-ni	1e	-li,
=39	=39	=39	=39	=39	=39	=39	=39
0.r	.	0.r	.	2B\	sunt	[0.g	sunt
.	.	.	.	2c\	.	.	.
.	.	.	.	2G/	.	.	.
.	.	.	.	2.c\	ce-	.	.
.	.	.	.	4B\	.	.	.
.	.	.	.	2c\	.	.	.
=40	=40	=40	=40	=40	=40	=40	=40
0.r	.	0.r	.	2G/	.	1g]	.
.	.	.	.	1c	.	.	.
.	.	.	.	.	.	1g	ce-
.	.	.	.	1g	.	.	.
.	.	.	.	.	.	1c	.
.	.	.	.	2e\	.	.	.
=41	=41	=41	=41	=41	=41	=41	=41
0.r	.	0.r	.	2d\	.	2B/	.
.	.	.	.	2e\	.	2c/	.
.	.	.	.	1c	-li,	2e/	.
.	.	.	.	.	.	1d	.
.	.	.	.	2B\	ce-	.	.
.	.	.	.	[2c\	.	2c/	.
=42	=42	=42	=42	=42	=42	=42	=42
0.r	.	0.r	.	2c\]	.	1g	.
.	.	.	.	2e\	.	.	.
.	.	.	.	2d\	.	2f/	.
.	.	.	.	2c\	.	2g/	.
.	.	.	.	1g	.	2b-i\	.
.	.	.	.	.	.	[2a/	.
=43	=43	=43	=43	=43	=43	=43	=43
0.r	.	0.r	.	2f\	.	2a/]	.
.	.	.	.	2g\	.	2g/	.
.	.	.	.	2e\	.	1cc	.
.	.	.	.	1d	.	.	.
.	.	.	.	.	.	2b\	.
.	.	.	.	[2c\	.	2cc\	.
=44	=44	=44	=44	=44	=44	=44	=44
0.r	.	0.r	.	2c\]	.	2ee\	.
.	.	.	.	2B\	.	1dd	.
.	.	.	.	1c	.	.	.
.	.	.	.	.	.	1cc	.
.	.	.	.	1d	.	.	.
.	.	.	.	.	.	2b\	.
=45	=45	=45	=45	=45	=45	=45	=45
0.r	.	0.r	.	[0.c	-li	2a/	.
.	.	.	.	.	.	2.cc\	.
.	.	.	.	.	.	4b\	.
.	.	.	.	.	.	2g/	.
.	.	.	.	.	.	2a/	.
.	.	.	.	.	.	4g/	.
.	.	.	.	.	.	4f/	.
=46	=46	=46	=46	=46	=46	=46	=46
0.r	.	0.r	.	0c]	.	0e	.
.	.	.	.	1c	et	1e	-li
=47	=47	=47	=47	=47	=47	=47	=47
0.r	.	0.r	.	4d\	ter-	1f	et
.	.	.	.	4c\	.	.	.
.	.	.	.	4B\	.	.	.
.	.	.	.	4A/	.	.	.
.	.	.	.	2G/	.	2e/	ter-
.	.	.	.	1c	.	2c/	.
.	.	.	.	.	.	1d	.
.	.	.	.	2B\	.	.	.
=48	=48	=48	=48	=48	=48	=48	=48
0.r	.	0.r	.	2.c\	.	2c/	.
.	.	.	.	.	.	2.g/	.
.	.	.	.	4B\	.	.	.
.	.	.	.	2c\	.	.	.
.	.	.	.	.	.	4f/	.
.	.	.	.	2G/	.	2g/	.
.	.	.	.	2c\	.	2e/	.
.	.	.	.	2B\	.	2d/	.
=49	=49	=49	=49	=49	=49	=49	=49
0.r	.	0.r	.	2G/	.	2.g/	.
.	.	.	.	2.c\	.	.	.
.	.	.	.	.	.	4f/	.
.	.	.	.	.	.	4e/	.
.	.	.	.	4d\	.	4d/	.
.	.	.	.	2e\	.	2c/	-ra
.	.	.	.	1c	-ra	2r	.
.	.	.	.	.	.	[2cc\	glo-
=50	=50	=50	=50	=50	=50	=50	=50
0.r	.	0.r	.	2.f\	glo-	4cc\]	.
.	.	.	.	.	.	4b\	.
.	.	.	.	.	.	2cc\	.
.	.	.	.	4e\	.	.	.
.	.	.	.	2f\	.	2a/	.
.	.	.	.	2d\	.	2.dd\	.
.	.	.	.	2.g\	.	.	.
.	.	.	.	.	.	4cc\	.
.	.	.	.	.	.	2dd\	.
.	.	.	.	4f\	.	.	.
=51	=51	=51	=51	=51	=51	=51	=51
0.r	.	0.r	.	2g\	.	2b\	.
.	.	.	.	2e\	.	2g/	.
.	.	.	.	2c\	.	2.cc\	.
.	.	.	.	2.f\	.	.	.
.	.	.	.	.	.	4b\	.
.	.	.	.	.	.	4a/	-ri-
.	.	.	.	4e\	.	4g/	.
.	.	.	.	4d\	-ri-	[2a/	-a,
.	.	.	.	4c\	.	.	.
=52	=52	=52	=52	=52	=52	=52	=52
0.r	.	0.r	.	1d	-a,	2a/]	glo-
.	.	.	.	.	.	2.d/	.
.	.	.	.	2.G/	glo-	.	.
.	.	.	.	.	.	4c/	.
.	.	.	.	.	.	2d/	.
.	.	.	.	4F/	.	.	.
.	.	.	.	2G/	.	2e/	.
.	.	.	.	2A/	.	2f/	.
=53	=53	=53	=53	=53	=53	=53	=53
0.r	.	0.r	.	2B\	.	2d/	.
.	.	.	.	2G/	.	2.g/	.
.	.	.	.	2.c\	.	.	.
.	.	.	.	.	.	4f/	.
.	.	.	.	.	.	2g/	.
.	.	.	.	4B\	.	.	.
.	.	.	.	2c\	.	2a/	.
.	.	.	.	2d\	.	2b\	.
=54	=54	=54	=54	=54	=54	=54	=54
0.r	.	0.r	.	2e\	.	2g/	.
.	.	.	.	2c\	.	2.cc\	.
.	.	.	.	2.f\	.	.	.
.	.	.	.	.	.	4b\	.
.	.	.	.	.	.	2cc\	.
.	.	.	.	4e\	.	.	.
.	.	.	.	2f\	.	2dd\	.
.	.	.	.	2g\	.	2ee\	.
=55	=55	=55	=55	=55	=55	=55	=55
0.r	.	0.r	.	2a\	.	2cc\	.
.	.	.	.	2f\	.	2.dd\	.
.	.	.	.	2g\	.	.	.
.	.	.	.	.	.	4g/	-ri-
.	.	.	.	2e\	.	2g/	a,
.	.	.	.	1d	.	2a/	.
.	.	.	.	.	.	2b\	.
=56	=56	=56	=56	=56	=56	=56	=56
0.r	.	0.r	.	1c	.	2cc\	.
.	.	.	.	.	.	2.a/	glo-
.	.	.	.	2d\	.	.	.
.	.	.	.	.	.	4d/	.
.	.	.	.	2B\	-ri-	2d/	.
.	.	.	.	1A	-a	2e/	.
.	.	.	.	.	.	2f/	.
=57	=57	=57	=57	=57	=57	=57	=57
*	*	*	*	*M3/1	*	*	*
*	*	*	*	*met(3)	*	*	*
0.r	.	0.r	.	3%2G	tu-	2.g/	.
.	.	.	.	3c\	.	.	.
.	.	.	.	.	.	4a/	.
.	.	.	.	3d\	.	2b\	.
.	.	.	.	3%2e	.	.	.
.	.	.	.	.	.	2.cc\	.
.	.	.	.	3%2f	.	.	.
.	.	.	.	.	.	4b\	.
.	.	.	.	.	.	4a/	.
.	.	.	.	3e\	.	.	.
.	.	.	.	.	.	4g/	.
=58	=58	=58	=58	=58	=58	=58	=58
0.r	.	0.r	.	3%2d	.	2b\	.
.	.	.	.	.	.	2.a/	.
.	.	.	.	3c\	.	.	.
.	.	.	.	3d\	.	.	.
.	.	.	.	.	.	4g/	.
.	.	.	.	3%2B	.	.	.
.	.	.	.	.	.	1g	.
.	.	.	.	3c\	.	.	.
.	.	.	.	3%2A	.	.	.
.	.	.	.	.	.	2f#i/	-ri-
=59	=59	=59	=59	=59	=59	=59	=59
*	*	*	*	*M3/1	*	*	*
*	*	*	*	*met(O)	*	*	*
0.r	.	0.r	.	2G/	-a,	1g	-a
.	.	.	.	1c	tu-	.	.
.	.	.	.	.	.	2r	.
.	.	.	.	2e\	.	1cc	tu-
.	.	.	.	1d	.	.	.
.	.	.	.	.	.	2b\	.
=60	=60	=60	=60	=60	=60	=60	=60
0.r	.	0.r	.	2c\	.	2cc\	.
.	.	.	.	2.g\	.	2ee\	.
.	.	.	.	.	.	2.dd\	.
.	.	.	.	4f\	.	.	.
.	.	.	.	2.d\	.	.	.
.	.	.	.	.	.	4cc\	.
.	.	.	.	.	.	2a/	.
.	.	.	.	4c\	.	.	.
.	.	.	.	[2e-\	.	2g/	.
=61	=61	=61	=61	=61	=61	=61	=61
0.r	.	0.r	.	4e-\]	.	2.b-\	.
.	.	.	.	4d\	.	.	.
.	.	.	.	4B-i\	.	.	.
.	.	.	.	4c\	.	4a/	.
.	.	.	.	2d\	-a,	2f/	.
.	.	.	.	2r	.	2.g/	.
.	.	.	.	4G/	tu-	.	.
.	.	.	.	4A/	.	4f/	.
.	.	.	.	2Bni\	.	2d/	.
=62	=62	=62	=62	=62	=62	=62	=62
0.r	.	0.r	.	2c\	.	2e/	.
.	.	.	.	2.d\	.	2.f/	.
.	.	.	.	4c\	.	4e/	.
.	.	.	.	1c	.	2c/	.
.	.	.	.	.	.	1d	.
.	.	.	.	2B\	.	.	.
=63	=63	=63	=63	=63	=63	=63	=63
0.r	.	0.r	.	0.cl	-a.	0.cl	-a.
!!LO:LB:i:g=z
=64||	=64||	=64||	=64||	=64||	=64||	=64||	=64||
*>C	*	*>C	*	*>C	*	*>C	*
*clefF4	*	*clefGv2	*	*clefGv2	*	*clefG2	*
*k[]	*	*k[]	*	*k[]	*	*k[]	*
*	*	*rscale:1/2	*	*	*	*	*
*M2/1	*	*M2/1	*	*M2/1	*	*M2/1	*
*met(C|)	*	*met(C)	*	*met(C|)	*	*met(C|)	*
!!!OMD: Osanna
!!section: Osanna
!	!	!LO:N:vis=0	!	!	!	!	!
[0c	O-	[y0g	Plu-	[0e	O-	[0cc	O-
=65	=65	=65-	=65	=65	=65	=65	=65
0c]	.	0g]yy	.	0e]	.	0cc]	.
=66	=66	=66	=66	=66	=66	=66	=66
0G	.	0g	-mez	[0d	-san-	0b	-san-
=67	=67	=67-	=67	=67	=67	=67	=67
0D	-san-	[0f	vos-	0d]	.	1.a	.
.	.	.	.	.	.	2g/	.
=68	=68	=68	=68	=68	=68	=68	=68
1.F	.	0f]	.	0c	-na,	1.a	.
2G\	.	.	.	.	.	2b\	.
=69	=69	=69-	=69	=69	=69	=69	=69
1A	.	0f	-tre	0r	.	1cc	.
1B	.	.	.	.	.	1dd	.
=70	=70	=70	=70	=70	=70	=70	=70
!	!	!LO:N:vis=0	!	!	!	!	!
1.c	-na,	[y0e	con,	1r	.	1g	.
.	.	.	.	[1c	o-	[1cc	.
2B\	.	.	.	.	.	.	.
=71	=71	=71-	=71	=71	=71	=71	=71
1A	.	0e]yy	.	1c]	.	1cc]	.
1G	o-	.	.	[1g	.	1b	.
=72	=72	=72	=72	=72	=72	=72	=72
!	!	!LO:N:vis=0	!	!	!	!	!
1c	-san-	0r	.	1g]	.	1ee	.
1B	.	.	.	1d	.	1dd	.
=73	=73	=73-	=73	=73	=73	=73	=73
0A	.	0ryy	.	1e	-san-	1.cc	.
.	.	.	.	1f	.	.	.
.	.	.	.	.	.	4b\	.
.	.	.	.	.	.	4a/	.
=74	=74	=74	=74	=74	=74	=74	=74
!	!	!LO:N:vis=0	!	!	!	!	!
[0G	-na,	[y0g	Plu-	0g	-na	0b	-na,
=75	=75	=75-	=75	=75	=75	=75	=75
0G_	.	0g]yy	.	1r	.	1g	o-
.	.	.	.	1G	o-	[1b	-san-
=76	=76	=76	=76	=76	=76	=76	=76
0G]	.	0g	-mez	1.B	-san-	2b\]	.
.	.	.	.	.	.	2cc\	.
.	.	.	.	.	.	[1dd	.
.	.	.	.	2c\	.	.	.
=77	=77	=77-	=77	=77	=77	=77	=77
[0D	o-	[0f	vos-	1.d	.	2dd\]	.
.	.	.	.	.	.	2cc\	.
.	.	.	.	.	.	[1a	.
.	.	.	.	2c\	.	.	.
=78	=78	=78	=78	=78	=78	=78	=78
0D]	.	0f]	.	0A	.	2a/]	.
.	.	.	.	.	.	2g/	.
.	.	.	.	.	.	2f/	.
.	.	.	.	.	.	2e/	.
=79	=79	=79-	=79	=79	=79	=79	=79
0BB-	-san-	0f	-tre	0B-i	.	0d	-na
=80	=80	=80	=80	=80	=80	=80	=80
!	!	!LO:N:vis=0	!	!	!	!	!
[0C	-na	[y0e	con,	1G	-na	1r	.
.	.	.	.	1A	in	1c	in
=81	=81	=81-	=81	=81	=81	=81	=81
0C_	.	0e]yy	.	1G	ex-	1g	.
.	.	.	.	[1c	-cel-	1a	ex-
=82	=82	=82	=82	=82	=82	=82	=82
!	!	!LO:N:vis=0	!	!	!	!	!
0C_	.	0r	.	2c\]	.	1g	-cel-
.	.	.	.	2B\	.	.	.
.	.	.	.	1A	.	[1cc	.
=83	=83	=83-	=83	=83	=83	=83	=83
0C]	.	0ryy	.	1G	.	2cc\]	.
.	.	.	.	.	.	2b\	.
.	.	.	.	[1c	.	1a	.
=84	=84	=84	=84	=84	=84	=84	=84
!	!	!LO:N:vis=0	!	!	!	!	!
1.c	in	[y0e	Il	2c\]	.	1g	-sis,
.	.	.	.	2d\	.	.	.
.	.	.	.	1e	.	[1cc	in
2B\	.	.	.	.	.	.	.
=85	=85	=85-	=85	=85	=85	=85	=85
1A	.	0e]yy	.	1c	.	1cc]	.
1G	ex-	.	.	[1g	-sis,	1b	ex-
=86	=86	=86	=86	=86	=86	=86	=86
1.c	-cel-	0e	en	1g]	.	1g	-cel-
.	.	.	.	1c	in	1a	.
2B\	.	.	.	.	.	.	.
=87	=87	=87-	=87	=87	=87	=87	=87
0G	-sis,	[0d	est	1d	.	2.b\	.
.	.	.	.	.	.	4cc\	.
.	.	.	.	1B	ex-	2.dd\	.
.	.	.	.	.	.	4ee\	.
=88	=88	=88	=88	=88	=88	=88	=88
0D	ex-	0d]	.	0A	-cel-	2.ff\	.
.	.	.	.	.	.	4ee\	.
.	.	.	.	.	.	4dd\	.
.	.	.	.	.	.	4cc\	.
.	.	.	.	.	.	[2dd\	.
=89	=89	=89-	=89	=89	=89	=89	=89
0G	-cel-	0d	say-	0G	.	4dd\]	.
.	.	.	.	.	.	4cc\	.
.	.	.	.	.	.	4b\	.
.	.	.	.	.	.	4a/	.
.	.	.	.	.	.	1b	.
=90	=90	=90	=90	=90	=90	=90	=90
*	*	*rscale:1	*	*	*	*	*
*	*	*	*	*^	*	*	*
0Cl	-sis.	0cl	-son.	0cl\	0gl/	-sis.	0ccl	-sis.
*	*	*	*	*v	*v	*	*	*
!!LO:TX:rj:i:t=fine
!!LO:LB:i:g=z
=91||	=91||	=91||	=91||	=91||	=91||	=91||	=91||
*>D	*	*>D	*	*>D	*	*>D	*
*clefF4	*	*clefGv2	*	*clefGv2	*	*clefG2	*
*k[]	*	*k[]	*	*k[]	*	*k[]	*
*M2/1	*	*M2/1	*	*M2/1	*	*M2/1	*
*met(C|)	*	*met(C|)	*	*met(C|)	*	*met(C|)	*
!!!OMD: Benedictus
!!section: Benedictus
!	!	!	!	!	!	!LO:TX:Z=6:t=Lower v. of theBenedictus is common to all three duos	!
0r	.	0r	.	[0c	Be-	0g	Be-
=92	=92	=92	=92	=92	=92	=92	=92
0r	.	0r	.	0c_	.	1a	-ne-
.	.	.	.	.	.	[1g	-dic-
=93	=93	=93	=93	=93	=93	=93	=93
0r	.	0r	.	0c]	.	2g/]	.
.	.	.	.	.	.	4a/	.
.	.	.	.	.	.	4b\	.
.	.	.	.	.	.	1cc	.
=94	=94	=94	=94	=94	=94	=94	=94
0r	.	0r	.	0d	-ne-	2b\	.
.	.	.	.	.	.	1a	.
.	.	.	.	.	.	4g/	.
.	.	.	.	.	.	4f/	.
=95	=95	=95	=95	=95	=95	=95	=95
0r	.	0r	.	[0e	-dic-	1g	-tus,
.	.	.	.	.	.	[1c	.
=96	=96	=96	=96	=96	=96	=96	=96
0r	.	0r	.	0e]	.	1c]	.
.	.	.	.	.	.	[1g	.
=97	=97	=97	=97	=97	=97	=97	=97
0r	.	0r	.	0c	-tus	2g/]	.
.	.	.	.	.	.	4a/	.
.	.	.	.	.	.	4b\	.
.	.	.	.	.	.	1cc	.
=98	=98	=98	=98	=98	=98	=98	=98
0r	.	0r	.	[0d	be-	2r	.
.	.	.	.	.	.	1f	be-
.	.	.	.	.	.	4g/	.
.	.	.	.	.	.	4a/	.
=99	=99	=99	=99	=99	=99	=99	=99
0r	.	0r	.	0d]	.	2b-i\	.
.	.	.	.	.	.	1a	.
.	.	.	.	.	.	4g/	-ne-
.	.	.	.	.	.	4f/	.
=100	=100	=100	=100	=100	=100	=100	=100
0r	.	0r	.	1.c	.	1e	-dic-
.	.	.	.	.	.	[1g	.
.	.	.	.	4B\	-ne-	.	.
.	.	.	.	4A/	.	.	.
=101	=101	=101	=101	=101	=101	=101	=101
0r	.	0r	.	1.G	-dic-	2g/]	.
.	.	.	.	.	.	2f/	.
.	.	.	.	.	.	1e	.
.	.	.	.	2A/	.	.	.
=102	=102	=102	=102	=102	=102	=102	=102
0r	.	0r	.	1B	.	1d	.
.	.	.	.	[1c	.	1c	.
=103	=103	=103	=103	=103	=103	=103	=103
0r	.	0r	.	2c\]	.	0d	.
.	.	.	.	4B\	.	.	.
.	.	.	.	4A/	.	.	.
.	.	.	.	1B	.	.	.
=104	=104	=104	=104	=104	=104	=104	=104
0r	.	0r	.	[0cl	-tus.	[0e	.
=105	=105	=105	=105	=105	=105	=105	=105
0r	.	0r	.	0c_	.	1e]	.
.	.	.	.	.	.	1c	.
=106	=106	=106	=106	=106	=106	=106	=106
0r	.	0r	.	0c]	.	0cl	-tus.
!!LO:LB:i:g=z
=107||	=107||	=107||	=107||	=107||	=107||	=107||	=107||
*>E	*	*>E	*	*>E	*	*>E	*
*clefF4	*	*clefGv2	*	*clefGv2	*	*clefG2	*
*k[]	*	*k[]	*	*k[]	*	*k[]	*
*M2/1	*	*M2/1	*	*M2/1	*	*M2/1	*
*met(C|)	*	*met()	*	*met(C|)	*	*met(C|)	*
!!!OMD: Qui venit
!!section: Qui venit
1C	Qui	0r	.	[0c	Qui	0r	.
1F	.	.	.	.	.	.	.
=108	=108	=108	=108	=108	=108	=108	=108
1E	ve-	0r	.	0c_	.	0r	.
[1C	-nit,	.	.	.	.	.	.
=109	=109	=109	=109	=109	=109	=109	=109
1C]	.	0r	.	0c]	.	0r	.
[1c	qui	.	.	.	.	.	.
=110	=110	=110	=110	=110	=110	=110	=110
2c\]	.	0r	.	0d	.	0r	.
4B\	.	.	.	.	.	.	.
4A\	.	.	.	.	.	.	.
1B	.	.	.	.	.	.	.
=111	=111	=111	=111	=111	=111	=111	=111
[0c	ve-	0r	.	[0e	ve-	0r	.
=112	=112	=112	=112	=112	=112	=112	=112
1c]	.	0r	.	0e]	.	0r	.
[1C	-nit,	.	.	.	.	.	.
=113	=113	=113	=113	=113	=113	=113	=113
1C]	.	0r	.	0c	-nit,	0r	.
1c	qui	.	.	.	.	.	.
=114	=114	=114	=114	=114	=114	=114	=114
2B\	ve-	0r	.	[0d	qui	0r	.
1G	.	.	.	.	.	.	.
4F\	.	.	.	.	.	.	.
4E\	.	.	.	.	.	.	.
=115	=115	=115	=115	=115	=115	=115	=115
2D\	.	0r	.	0d]	.	0r	.
2.G\	.	.	.	.	.	.	.
4A\	.	.	.	.	.	.	.
2B\	.	.	.	.	.	.	.
=116	=116	=116	=116	=116	=116	=116	=116
2c\	.	0r	.	1.c	ve-	0r	.
1A	.	.	.	.	.	.	.
2c\	.	.	.	4B\	.	.	.
.	.	.	.	4A/	.	.	.
=117	=117	=117	=117	=117	=117	=117	=117
2B\	.	0r	.	1.G	.	0r	.
1G	.	.	.	.	.	.	.
2F\	.	.	.	2A/	.	.	.
=118	=118	=118	=118	=118	=118	=118	=118
1G	-nit,	0r	.	1B	.	0r	.
1E	ve-	.	.	[1c	.	.	.
=119	=119	=119	=119	=119	=119	=119	=119
0D	.	0r	.	2c\]	.	0r	.
.	.	.	.	4B\	.	.	.
.	.	.	.	4A/	.	.	.
.	.	.	.	1B	.	.	.
=120	=120	=120	=120	=120	=120	=120	=120
0Cl	-nit.	0r	.	0cl	-nit.	0r	.
!!LO:LB:i:g=z
=121||	=121||	=121||	=121||	=121||	=121||	=121||	=121||
*>F	*	*>F	*	*>F	*	*>F	*
*clefF4	*	*clefGv2	*	*clefGv2	*	*clefG2	*
*k[]	*	*k[]	*	*k[]	*	*k[]	*
*M2/1	*	*M2/1	*	*M2/1	*	*M2/1	*
*met(C|)	*	*met(C|)	*	*met(C|)	*	*met(C|)	*
!!!OMD: In nomine
!!section: In nomine
0r	.	0r	.	[0c	In	1c	In
.	.	.	.	.	.	[1e	no-
=122	=122	=122	=122	=122	=122	=122	=122
0r	.	0r	.	0c_	.	2e/]	.
.	.	.	.	.	.	2f/	.
.	.	.	.	.	.	1g	.
=123	=123	=123	=123	=123	=123	=123	=123
0r	.	0r	.	0c]	.	1c	.
.	.	.	.	.	.	1g	.
=124	=124	=124	=124	=124	=124	=124	=124
0r	.	0r	.	0d	no-	1.f	.
.	.	.	.	.	.	4e/	-mi-
.	.	.	.	.	.	4d/	.
=125	=125	=125	=125	=125	=125	=125	=125
0r	.	0r	.	[0e	-mi-	0c	-ne
=126	=126	=126	=126	=126	=126	=126	=126
0r	.	0r	.	0e]	.	1r	.
.	.	.	.	.	.	[1cc	do-
=127	=127	=127	=127	=127	=127	=127	=127
0r	.	0r	.	0c	-ne	2cc\]	.
.	.	.	.	.	.	2dd\	.
.	.	.	.	.	.	1ee	.
=128	=128	=128	=128	=128	=128	=128	=128
0r	.	0r	.	[0d	do-	2dd\	.
.	.	.	.	.	.	2.ff\	.
.	.	.	.	.	.	4ee\	.
.	.	.	.	.	.	[2dd\	.
=129	=129	=129	=129	=129	=129	=129	=129
0r	.	0r	.	0d]	.	4dd\]	.
.	.	.	.	.	.	4cc\	.
.	.	.	.	.	.	2a/	.
.	.	.	.	.	.	1b	-mi-
=130	=130	=130	=130	=130	=130	=130	=130
0r	.	0r	.	1.c	.	1cc	-ni,
.	.	.	.	.	.	2a/	do-
.	.	.	.	4B\	.	2cc\	.
.	.	.	.	4A/	.	.	.
=131	=131	=131	=131	=131	=131	=131	=131
0r	.	0r	.	1.G	.	2b\	.
.	.	.	.	.	.	1g	.
.	.	.	.	2A/	.	4f/	.
.	.	.	.	.	.	4e/	.
=132	=132	=132	=132	=132	=132	=132	=132
0r	.	0r	.	1B	.	2d/	.
.	.	.	.	.	.	2.g/	.
.	.	.	.	[1c	.	.	.
.	.	.	.	.	.	4f/	.
.	.	.	.	.	.	[2e/	.
=133	=133	=133	=133	=133	=133	=133	=133
0r	.	0r	.	2c\]	.	2e/]	.
.	.	.	.	4B\	.	4d/	.
.	.	.	.	4A/	.	4c/	.
.	.	.	.	1B	-mi-	1d	-mi-
=134	=134	=134	=134	=134	=134	=134	=134
0r	.	0r	.	[0cl	-ni.	0e	-ni.
=135	=135	=135	=135	=135	=135	=135	=135
0r	.	0r	.	0c]	.	0cl	.
!!LO:TX:i:Y=40:rj:t=Osanna ut supra
=||	=||	=||	=||	=||	=||	=||	=||
*-	*-	*-	*-	*-	*-	*-	*-
!!!RDF**kern: l=long note in original notation
!!!RDF**kern: i=editorial accidental
!!!ENC: Jesse Rodin 2021/09/29
!!!END: 2012/02/07/
!!!EED: Jesse Rodin
!!!EEV: 2012/05/25/
!!attribution-level@Jos: 2 (provisionally attributable [parentheses checkmark])
!!!ONB: Translated from MusicXML and edited on 2012/05/25/ by Craig Sapp
!!muse2ps: T^@{OPR}^u^@{ONM}{. }@{OTL}^C^@{COM}\n@{SCT}^i2I150v90,90,90,120c115z18l2700t130
